assets/1. F-P/Japanese passing grade button/Color/Japanese.Passing.Grade.Button-color.svg

<svg width="100%" height="100%" viewBox="0 0 32 32" fill="none" xmlns="http://www.w3.org/2000/svg">
<g filter="url(#filter0_ii_18590_2668)">
<rect x="2.09033" y="2.1875" width="27.875" height="27.875" rx="3.6" fill="url(#paint0_linear_18590_2668)"/>
<rect x="2.09033" y="2.1875" width="27.875" height="27.875" rx="3.6" fill="url(#paint1_radial_18590_2668)"/>
</g>
<g filter="url(#filter1_f_18590_2668)">
<path d="M28.2778 4.6875V27.5625" stroke="url(#paint2_linear_18590_2668)" stroke-width="1.5" stroke-linecap="round"/>
</g>
<g filter="url(#filter2_f_18590_2668)">
<path d="M5.5542 4H27.3354" stroke="url(#paint3_linear_18590_2668)" stroke-width="1.5" stroke-linecap="round"/>
</g>
<g filter="url(#filter3_f_18590_2668)">
<path d="M15.4774 5.625C15.0636 5.625 14.6926 5.87983 14.5441 6.26602C14.0646 7.51275 11.9271 10.7084 7.69419 12.3488C7.17922 12.5484 6.92354 13.1276 7.12311 13.6426C7.32269 14.1576 7.90193 14.4132 8.4169 14.2137C8.96675 14.0006 9.4868 13.7641 9.97767 13.5099C10.0319 13.4818 10.0984 13.5082 10.1252 13.5632C10.2876 13.8958 10.6292 14.125 11.0243 14.125H21.0243C21.4191 14.125 21.7604 13.8963 21.923 13.5642C21.95 13.5089 22.0173 13.4826 22.0716 13.5114C22.5687 13.775 23.093 14.0134 23.6444 14.2185C24.1621 14.4111 24.7378 14.1475 24.9303 13.6299C25.1228 13.1122 24.8593 12.5365 24.3417 12.344C20.5622 10.9382 18.2005 7.62853 17.4632 6.1731C17.2929 5.83689 16.948 5.625 16.5712 5.625H15.4774ZM19.7174 11.944C19.7912 12.004 19.7493 12.125 19.6543 12.125H12.4787C12.3827 12.125 12.3414 12.0019 12.417 11.9426C14.157 10.579 15.3224 9.06164 15.97 7.90451C16.0079 7.83679 16.105 7.83434 16.1459 7.90028C16.8557 9.04411 18.0494 10.5877 19.7174 11.944Z" fill="#EF2B54"/>
<path d="M8.02429 16.125C7.47201 16.125 7.02429 16.5727 7.02429 17.125V25.125C7.02429 25.6773 7.47201 26.125 8.02429 26.125C8.54287 26.125 8.96926 25.7303 9.01937 25.2249C9.02482 25.1699 9.06906 25.125 9.12429 25.125H22.9243C22.9795 25.125 23.0238 25.1699 23.0292 25.2249C23.0793 25.7303 23.5057 26.125 24.0243 26.125C24.5766 26.125 25.0243 25.6773 25.0243 25.125V17.125C25.0243 16.5727 24.5766 16.125 24.0243 16.125H8.02429ZM22.9243 18.125C22.9795 18.125 23.0243 18.1698 23.0243 18.225V23.025C23.0243 23.0802 22.9795 23.125 22.9243 23.125H9.12429C9.06906 23.125 9.02429 23.0802 9.02429 23.025V18.225C9.02429 18.1698 9.06906 18.125 9.12429 18.125H22.9243Z" fill="#EF2B54"/>
</g>
<g filter="url(#filter4_ii_18590_2668)">
<path d="M15.4774 5.625C15.0636 5.625 14.6926 5.87983 14.5441 6.26602C14.0646 7.51275 11.9271 10.7084 7.69419 12.3488C7.17922 12.5484 6.92354 13.1276 7.12311 13.6426C7.32269 14.1576 7.90193 14.4132 8.4169 14.2137C8.96675 14.0006 9.4868 13.7641 9.97767 13.5099C10.0319 13.4818 10.0984 13.5082 10.1252 13.5632C10.2876 13.8958 10.6292 14.125 11.0243 14.125H21.0243C21.4191 14.125 21.7604 13.8963 21.923 13.5642C21.95 13.5089 22.0173 13.4826 22.0716 13.5114C22.5687 13.775 23.093 14.0134 23.6444 14.2185C24.1621 14.4111 24.7378 14.1475 24.9303 13.6299C25.1228 13.1122 24.8593 12.5365 24.3417 12.344C20.5622 10.9382 18.2005 7.62853 17.4632 6.1731C17.2929 5.83689 16.948 5.625 16.5712 5.625H15.4774ZM19.7174 11.944C19.7912 12.004 19.7493 12.125 19.6543 12.125H12.4787C12.3827 12.125 12.3414 12.0019 12.417 11.9426C14.157 10.579 15.3224 9.06164 15.97 7.90451C16.0079 7.83679 16.105 7.83434 16.1459 7.90028C16.8557 9.04411 18.0494 10.5877 19.7174 11.944Z" fill="#FCF2FF"/>
<path d="M8.02429 16.125C7.47201 16.125 7.02429 16.5727 7.02429 17.125V25.125C7.02429 25.6773 7.47201 26.125 8.02429 26.125C8.54287 26.125 8.96926 25.7303 9.01937 25.2249C9.02482 25.1699 9.06906 25.125 9.12429 25.125H22.9243C22.9795 25.125 23.0238 25.1699 23.0292 25.2249C23.0793 25.7303 23.5057 26.125 24.0243 26.125C24.5766 26.125 25.0243 25.6773 25.0243 25.125V17.125C25.0243 16.5727 24.5766 16.125 24.0243 16.125H8.02429ZM22.9243 18.125C22.9795 18.125 23.0243 18.1698 23.0243 18.225V23.025C23.0243 23.0802 22.9795 23.125 22.9243 23.125H9.12429C9.06906 23.125 9.02429 23.0802 9.02429 23.025V18.225C9.02429 18.1698 9.06906 18.125 9.12429 18.125H22.9243Z" fill="#FCF2FF"/>
</g>
<defs>
<filter id="filter0_ii_18590_2668" x="2.09033" y="1.1875" width="28.875" height="28.875" filterUnits="userSpaceOnUse" color-interpolation-filters="sRGB">
<feFlood flood-opacity="0" result="BackgroundImageFix"/>
<feBlend mode="normal" in="SourceGraphic" in2="BackgroundImageFix" result="shape"/>
<feColorMatrix in="SourceAlpha" type="matrix" values="0 0 0 0 0 0 0 0 0 0 0 0 0 0 0 0 0 0 127 0" result="hardAlpha"/>
<feOffset dx="1" dy="-1"/>
<feGaussianBlur stdDeviation="1.5"/>
<feComposite in2="hardAlpha" operator="arithmetic" k2="-1" k3="1"/>
<feColorMatrix type="matrix" values="0 0 0 0 0.901961 0 0 0 0 0.133333 0 0 0 0 0.337255 0 0 0 1 0"/>
<feBlend mode="normal" in2="shape" result="effect1_innerShadow_18590_2668"/>
<feColorMatrix in="SourceAlpha" type="matrix" values="0 0 0 0 0 0 0 0 0 0 0 0 0 0 0 0 0 0 127 0" result="hardAlpha"/>
<feOffset dy="-1"/>
<feGaussianBlur stdDeviation="1.5"/>
<feComposite in2="hardAlpha" operator="arithmetic" k2="-1" k3="1"/>
<feColorMatrix type="matrix" values="0 0 0 0 0.85098 0 0 0 0 0.168627 0 0 0 0 0.231373 0 0 0 1 0"/>
<feBlend mode="normal" in2="effect1_innerShadow_18590_2668" result="effect2_innerShadow_18590_2668"/>
</filter>
<filter id="filter1_f_18590_2668" x="25.5278" y="1.9375" width="5.5" height="28.375" filterUnits="userSpaceOnUse" color-interpolation-filters="sRGB">
<feFlood flood-opacity="0" result="BackgroundImageFix"/>
<feBlend mode="normal" in="SourceGraphic" in2="BackgroundImageFix" result="shape"/>
<feGaussianBlur stdDeviation="1" result="effect1_foregroundBlur_18590_2668"/>
</filter>
<filter id="filter2_f_18590_2668" x="2.8042" y="1.25" width="27.2812" height="5.5" filterUnits="userSpaceOnUse" color-interpolation-filters="sRGB">
<feFlood flood-opacity="0" result="BackgroundImageFix"/>
<feBlend mode="normal" in="SourceGraphic" in2="BackgroundImageFix" result="shape"/>
<feGaussianBlur stdDeviation="1" result="effect1_foregroundBlur_18590_2668"/>
</filter>
<filter id="filter3_f_18590_2668" x="6.02429" y="4.625" width="20" height="22.5" filterUnits="userSpaceOnUse" color-interpolation-filters="sRGB">
<feFlood flood-opacity="0" result="BackgroundImageFix"/>
<feBlend mode="normal" in="SourceGraphic" in2="BackgroundImageFix" result="shape"/>
<feGaussianBlur stdDeviation="0.5" result="effect1_foregroundBlur_18590_2668"/>
</filter>
<filter id="filter4_ii_18590_2668" x="6.62429" y="5.225" width="18.8" height="21.3" filterUnits="userSpaceOnUse" color-interpolation-filters="sRGB">
<feFlood flood-opacity="0" result="BackgroundImageFix"/>
<feBlend mode="normal" in="SourceGraphic" in2="BackgroundImageFix" result="shape"/>
<feColorMatrix in="SourceAlpha" type="matrix" values="0 0 0 0 0 0 0 0 0 0 0 0 0 0 0 0 0 0 127 0" result="hardAlpha"/>
<feOffset dx="-0.4" dy="0.4"/>
<feGaussianBlur stdDeviation="0.375"/>
<feComposite in2="hardAlpha" operator="arithmetic" k2="-1" k3="1"/>
<feColorMatrix type="matrix" values="0 0 0 0 0.913725 0 0 0 0 0.886275 0 0 0 0 0.968627 0 0 0 1 0"/>
<feBlend mode="normal" in2="shape" result="effect1_innerShadow_18590_2668"/>
<feColorMatrix in="SourceAlpha" type="matrix" values="0 0 0 0 0 0 0 0 0 0 0 0 0 0 0 0 0 0 127 0" result="hardAlpha"/>
<feOffset dx="0.4" dy="-0.4"/>
<feGaussianBlur stdDeviation="0.2"/>
<feComposite in2="hardAlpha" operator="arithmetic" k2="-1" k3="1"/>
<feColorMatrix type="matrix" values="0 0 0 0 1 0 0 0 0 0.988235 0 0 0 0 1 0 0 0 1 0"/>
<feBlend mode="normal" in2="effect1_innerShadow_18590_2668" result="effect2_innerShadow_18590_2668"/>
</filter>
<linearGradient id="paint0_linear_18590_2668" x1="16.0278" y1="5.76201" x2="16.0278" y2="39.0147" gradientUnits="userSpaceOnUse">
<stop stop-color="#FF4D91"/>
<stop offset="1" stop-color="#F34A5F"/>
</linearGradient>
<radialGradient id="paint1_radial_18590_2668" cx="0" cy="0" r="1" gradientUnits="userSpaceOnUse" gradientTransform="translate(27.7466 4.28125) rotate(136.771) scale(2.14444 2.50466)">
<stop stop-color="#FF77B1"/>
<stop offset="1" stop-color="#FF77B1" stop-opacity="0"/>
</radialGradient>
<linearGradient id="paint2_linear_18590_2668" x1="28.7778" y1="4.6875" x2="28.7778" y2="27.5625" gradientUnits="userSpaceOnUse">
<stop stop-color="#FF66A5"/>
<stop offset="1" stop-color="#FF5B6B"/>
</linearGradient>
<linearGradient id="paint3_linear_18590_2668" x1="28.4917" y1="4.25002" x2="2.96045" y2="4.25002" gradientUnits="userSpaceOnUse">
<stop stop-color="#FF60A3"/>
<stop offset="1" stop-color="#FF5495"/>
</linearGradient>
</defs>
</svg>

<svg width="100%" height="100%" viewBox="0 0 32 32" xmlns="http://www.w3.org/2000/svg"><g filter="url(#a)"><rect width="27.875" height="27.875" x="2.09" y="2.188" fill="url(#b)" rx="3.6"/><rect width="27.875" height="27.875" x="2.09" y="2.188" fill="url(#c)" rx="3.6"/></g><g filter="url(#d)"><path stroke="url(#e)" stroke-linecap="round" stroke-width="1.5" d="M28.278 4.688v22.875"/></g><g filter="url(#f)"><path stroke="url(#g)" stroke-linecap="round" stroke-width="1.5" d="M5.554 4h21.781"/></g><g fill="#EF2B54" filter="url(#h)"><path d="M15.477 5.625a1 1 0 0 0-.933.641c-.48 1.247-2.617 4.442-6.85 6.083a1 1 0 0 0 .723 1.865q.825-.321 1.56-.704c.055-.028.121-.002.148.053a1 1 0 0 0 .9.562h10a1 1 0 0 0 .898-.56c.027-.056.094-.082.149-.054a13 13 0 0 0 1.572.708 1 1 0 1 0 .698-1.875c-3.78-1.406-6.141-4.715-6.879-6.17a1 1 0 0 0-.892-.549zm4.24 6.319c.074.06.032.181-.063.181H12.48c-.096 0-.138-.123-.062-.182 1.74-1.364 2.905-2.881 3.553-4.038a.102.102 0 0 1 .176-.005 16.7 16.7 0 0 0 3.571 4.044M8.024 16.125a1 1 0 0 0-1 1v8a1 1 0 0 0 1.995.1c.006-.055.05-.1.105-.1h13.8c.056 0 .1.045.105.1a1 1 0 0 0 1.995-.1v-8a1 1 0 0 0-1-1zm14.9 2a.1.1 0 0 1 .1.1v4.8a.1.1 0 0 1-.1.1h-13.8a.1.1 0 0 1-.1-.1v-4.8a.1.1 0 0 1 .1-.1z"/></g><g fill="#FCF2FF" filter="url(#i)"><path d="M15.477 5.625a1 1 0 0 0-.933.641c-.48 1.247-2.617 4.442-6.85 6.083a1 1 0 0 0 .723 1.865q.825-.321 1.56-.704c.055-.028.121-.002.148.053a1 1 0 0 0 .9.562h10a1 1 0 0 0 .898-.56c.027-.056.094-.082.149-.054a13 13 0 0 0 1.572.708 1 1 0 1 0 .698-1.875c-3.78-1.406-6.141-4.715-6.879-6.17a1 1 0 0 0-.892-.549zm4.24 6.319c.074.06.032.181-.063.181H12.48c-.096 0-.138-.123-.062-.182 1.74-1.364 2.905-2.881 3.553-4.038a.102.102 0 0 1 .176-.005 16.7 16.7 0 0 0 3.571 4.044M8.024 16.125a1 1 0 0 0-1 1v8a1 1 0 0 0 1.995.1c.006-.055.05-.1.105-.1h13.8c.056 0 .1.045.105.1a1 1 0 0 0 1.995-.1v-8a1 1 0 0 0-1-1zm14.9 2a.1.1 0 0 1 .1.1v4.8a.1.1 0 0 1-.1.1h-13.8a.1.1 0 0 1-.1-.1v-4.8a.1.1 0 0 1 .1-.1z"/></g><defs><filter id="a" width="28.875" height="28.875" x="2.09" y="1.188" color-interpolation-filters="sRGB" filterUnits="userSpaceOnUse"><feFlood flood-opacity="0" result="BackgroundImageFix"/><feBlend in="SourceGraphic" in2="BackgroundImageFix" result="shape"/><feColorMatrix in="SourceAlpha" result="hardAlpha" values="0 0 0 0 0 0 0 0 0 0 0 0 0 0 0 0 0 0 127 0"/><feOffset dx="1" dy="-1"/><feGaussianBlur stdDeviation="1.5"/><feComposite in2="hardAlpha" k2="-1" k3="1" operator="arithmetic"/><feColorMatrix values="0 0 0 0 0.901961 0 0 0 0 0.133333 0 0 0 0 0.337255 0 0 0 1 0"/><feBlend in2="shape" result="effect1_innerShadow_18590_2668"/><feColorMatrix in="SourceAlpha" result="hardAlpha" values="0 0 0 0 0 0 0 0 0 0 0 0 0 0 0 0 0 0 127 0"/><feOffset dy="-1"/><feGaussianBlur stdDeviation="1.5"/><feComposite in2="hardAlpha" k2="-1" k3="1" operator="arithmetic"/><feColorMatrix values="0 0 0 0 0.85098 0 0 0 0 0.168627 0 0 0 0 0.231373 0 0 0 1 0"/><feBlend in2="effect1_innerShadow_18590_2668" result="effect2_innerShadow_18590_2668"/></filter><filter id="d" width="5.5" height="28.375" x="25.528" y="1.938" color-interpolation-filters="sRGB" filterUnits="userSpaceOnUse"><feFlood flood-opacity="0" result="BackgroundImageFix"/><feBlend in="SourceGraphic" in2="BackgroundImageFix" result="shape"/><feGaussianBlur result="effect1_foregroundBlur_18590_2668" stdDeviation="1"/></filter><filter id="f" width="27.281" height="5.5" x="2.804" y="1.25" color-interpolation-filters="sRGB" filterUnits="userSpaceOnUse"><feFlood flood-opacity="0" result="BackgroundImageFix"/><feBlend in="SourceGraphic" in2="BackgroundImageFix" result="shape"/><feGaussianBlur result="effect1_foregroundBlur_18590_2668" stdDeviation="1"/></filter><filter id="h" width="20" height="22.5" x="6.024" y="4.625" color-interpolation-filters="sRGB" filterUnits="userSpaceOnUse"><feFlood flood-opacity="0" result="BackgroundImageFix"/><feBlend in="SourceGraphic" in2="BackgroundImageFix" result="shape"/><feGaussianBlur result="effect1_foregroundBlur_18590_2668" stdDeviation=".5"/></filter><filter id="i" width="18.8" height="21.3" x="6.624" y="5.225" color-interpolation-filters="sRGB" filterUnits="userSpaceOnUse"><feFlood flood-opacity="0" result="BackgroundImageFix"/><feBlend in="SourceGraphic" in2="BackgroundImageFix" result="shape"/><feColorMatrix in="SourceAlpha" result="hardAlpha" values="0 0 0 0 0 0 0 0 0 0 0 0 0 0 0 0 0 0 127 0"/><feOffset dx="-.4" dy=".4"/><feGaussianBlur stdDeviation=".375"/><feComposite in2="hardAlpha" k2="-1" k3="1" operator="arithmetic"/><feColorMatrix values="0 0 0 0 0.913725 0 0 0 0 0.886275 0 0 0 0 0.968627 0 0 0 1 0"/><feBlend in2="shape" result="effect1_innerShadow_18590_2668"/><feColorMatrix in="SourceAlpha" result="hardAlpha" values="0 0 0 0 0 0 0 0 0 0 0 0 0 0 0 0 0 0 127 0"/><feOffset dx=".4" dy="-.4"/><feGaussianBlur stdDeviation=".2"/><feComposite in2="hardAlpha" k2="-1" k3="1" operator="arithmetic"/><feColorMatrix values="0 0 0 0 1 0 0 0 0 0.988235 0 0 0 0 1 0 0 0 1 0"/><feBlend in2="effect1_innerShadow_18590_2668" result="effect2_innerShadow_18590_2668"/></filter><linearGradient id="b" x1="16.028" x2="16.028" y1="5.762" y2="39.015" gradientUnits="userSpaceOnUse"><stop stop-color="#FF4D91"/><stop offset="1" stop-color="#F34A5F"/></linearGradient><linearGradient id="e" x1="28.778" x2="28.778" y1="4.688" y2="27.563" gradientUnits="userSpaceOnUse"><stop stop-color="#FF66A5"/><stop offset="1" stop-color="#FF5B6B"/></linearGradient><linearGradient id="g" x1="28.492" x2="2.96" y1="4.25" y2="4.25" gradientUnits="userSpaceOnUse"><stop stop-color="#FF60A3"/><stop offset="1" stop-color="#FF5495"/></linearGradient><radialGradient id="c" cx="0" cy="0" r="1" gradientTransform="matrix(-1.56249 1.46876 -1.71548 -1.82495 27.747 4.281)" gradientUnits="userSpaceOnUse"><stop stop-color="#FF77B1"/><stop offset="1" stop-color="#FF77B1" stop-opacity="0"/></radialGradient></defs></svg>
